X: 19301
T: Jack & Maimie's
R: jig
M: 6/8
K: Fmajor
|:cAF cFA|cAF FAc|d2b bag|afd dfd|
cAF cFA|cAF FED|CEG cde|1 f2f fed:|2 f2F ABc||
|:dbf dbf|a2g f2c|B2c dcB|AFF F2c|
dbf dbf|a2g fga|bge ceg|1 f2F ABc:|2 f2f fed||

